Ministry.BlogPage/wwwroot/dist/img/about_agency/pure.svg

<svg width="70" height="70" viewBox="0 0 70 70" fill="none" xmlns="http://www.w3.org/2000/svg">
<path d="M41.3758 55.4746C41.029 56.0205 40.6503 56.5555 40.2505 57.0647L41.8636 58.3311C42.3051 57.7686 42.7233 57.1776 43.1067 56.5745L41.3758 55.4746Z" fill="white"/>
<path d="M42.8808 52.6018C42.6299 53.1972 42.3454 53.7874 42.0352 54.3559L43.8357 55.3378C44.1785 54.7092 44.4931 54.0566 44.7705 53.3983L42.8808 52.6018Z" fill="white"/>
<path d="M39.415 58.0592C38.9827 58.5405 38.521 59.0058 38.0427 59.4424L39.4256 60.9568C39.9535 60.4748 40.4632 59.9608 40.9405 59.4295L39.415 58.0592Z" fill="white"/>
<path d="M37.0546 60.2859C36.5485 60.6898 36.0166 61.0727 35.4739 61.4238L36.5876 63.1458C37.1874 62.7579 37.7748 62.335 38.3339 61.8888L37.0546 60.2859Z" fill="white"/>
<path d="M19.8019 63.845L19.2607 65.823C19.9501 66.0117 20.6575 66.1674 21.3631 66.2857L21.7023 64.2632C21.0643 64.1561 20.425 64.0155 19.8019 63.845Z" fill="white"/>
<path d="M22.9887 64.4348L22.7854 66.4755C23.4941 66.5462 24.217 66.582 24.9335 66.582V64.5312C24.2845 64.5312 23.6302 64.4988 22.9887 64.4348Z" fill="white"/>
<path d="M5.46875 45.0663H3.41797C3.41797 54.2203 9.23371 62.3909 17.8898 65.3977L18.5627 63.4606C10.7308 60.74 5.46875 53.3479 5.46875 45.0663Z" fill="white"/>
<path d="M30.9469 8.6991C28.2485 11.0486 26.1611 14.0561 24.9104 17.3965L26.831 18.1156C27.9625 15.0936 29.8516 12.3722 32.2936 10.2458L30.9469 8.6991Z" fill="white"/>
<path d="M52.1104 4.60205L51.4375 6.53922C59.2694 9.25992 64.5313 16.652 64.5313 24.9335H66.5821C66.5821 15.7796 60.7664 7.60904 52.1104 4.60205Z" fill="white"/>
<path d="M48.6369 3.71436L48.2976 5.73684C48.9355 5.84389 49.575 5.98457 50.198 6.15506L50.7393 4.17701C50.0499 3.98834 49.3425 3.83262 48.6369 3.71436Z" fill="white"/>
<path d="M45.0664 3.41797V5.46875C45.7153 5.46875 46.3696 5.50115 47.0114 5.56514L47.2145 3.52447C46.5056 3.45379 45.7828 3.41797 45.0664 3.41797Z" fill="white"/>
<path d="M45.0665 0C39.048 0 33.2365 2.17396 28.7026 6.12145C24.4043 9.86385 21.519 14.9544 20.5233 20.5233C14.9544 21.519 9.86371 24.4042 6.12131 28.7026C2.17396 33.2365 0 39.0478 0 45.0665C0 58.8148 11.1852 70 24.9335 70C30.952 70 36.7635 67.826 41.2973 63.8786C45.5957 60.1362 48.481 55.0456 49.4766 49.4767C55.0454 48.481 60.1362 45.5957 63.8786 41.2974C67.8262 36.7635 70 30.9522 70 24.9335C70 11.1852 58.8148 0 45.0665 0ZM47.5691 48.4341C45.9287 59.5595 36.1975 67.9492 24.9335 67.9492C12.316 67.9492 2.05078 57.684 2.05078 45.0665C2.05078 33.8025 10.4405 24.0712 21.566 22.4309C22.6782 22.2668 23.8112 22.1837 24.9335 22.1837C37.5512 22.1837 47.8163 32.449 47.8163 45.0666C47.8163 46.1892 47.7332 47.3223 47.5691 48.4341ZM49.7644 47.332C49.8326 46.5779 49.8671 45.8199 49.8671 45.0665C49.8671 31.318 38.6818 20.1328 24.9335 20.1328C24.1801 20.1328 23.4221 20.1672 22.668 20.2355C24.8577 9.77853 34.2562 2.05078 45.0665 2.05078C57.6841 2.05078 67.9492 12.316 67.9492 24.9335C67.9492 35.7438 60.2215 45.1423 49.7644 47.332Z" fill="white"/>
<path d="M45.751 47.8063C45.5226 47.813 45.2922 47.8165 45.0665 47.8165C32.4488 47.8165 22.1836 37.5512 22.1836 24.9336C22.1836 24.7065 22.187 24.4756 22.1938 24.2472L20.144 24.1864C20.1366 24.435 20.1328 24.6864 20.1328 24.9336C20.1328 38.682 31.318 49.8672 45.0665 49.8672C45.3123 49.8672 45.563 49.8635 45.8116 49.8562L45.751 47.8063Z" fill="white"/>
<path d="M32.4604 24.9093L31.741 26.8298C32.3462 27.0565 32.9474 27.3169 33.5279 27.6039L34.4367 25.7653C33.7948 25.448 33.1298 25.16 32.4604 24.9093Z" fill="white"/>
<path d="M35.7017 26.444L34.6724 28.2178C39.589 31.0712 43.0107 35.8911 44.0602 41.4416L46.0751 41.0606C44.9151 34.9242 41.134 29.5967 35.7017 26.444Z" fill="white"/>
<path d="M29.0066 23.9377L28.6191 25.9515C29.2543 26.0737 29.8908 26.2298 30.5105 26.4155L31.0989 24.451C30.4134 24.2456 29.7095 24.073 29.0066 23.9377Z" fill="white"/>
</svg>

<svg width="70" height="70" fill="none" xmlns="http://www.w3.org/2000/svg"><path d="M41.376 55.475c-.347.545-.726 1.08-1.125 1.59l1.613 1.266c.441-.562.86-1.153 1.243-1.757l-1.731-1.1zm1.504-2.873a19.35 19.35 0 01-.845 1.754l1.8.982c.343-.629.658-1.281.935-1.94l-1.89-.796zm-3.465 5.458c-.432.48-.894.946-1.372 1.382l1.383 1.515a21.849 21.849 0 001.514-1.528l-1.525-1.37zm-2.36 2.226c-.507.404-1.038.787-1.581 1.138l1.114 1.722c.6-.388 1.187-.811 1.746-1.257l-1.28-1.603zm-17.253 3.559l-.541 1.978c.69.189 1.396.344 2.102.463l.34-2.023a19.394 19.394 0 01-1.901-.418zm3.187.59l-.204 2.04c.71.071 1.432.107 2.148.107v-2.05a19.67 19.67 0 01-1.944-.097zM5.469 45.066H3.418c0 9.154 5.816 17.325 14.472 20.332l.673-1.937C10.73 60.74 5.469 53.348 5.469 45.066zM30.947 8.7a21.626 21.626 0 00-6.037 8.697l1.921.719a19.57 19.57 0 015.463-7.87l-1.347-1.547zM52.11 4.602l-.672 1.937C59.269 9.26 64.53 16.652 64.53 24.934h2.051c0-9.154-5.816-17.325-14.472-20.332zm-3.473-.888l-.34 2.023a19.45 19.45 0 011.901.418l.541-1.978a21.395 21.395 0 00-2.102-.463zm-3.571-.296v2.05c.65 0 1.304.033 1.945.097l.203-2.04a21.74 21.74 0 00-2.148-.107z" fill="#fff"/><path d="M45.066 0a24.937 24.937 0 00-24.543 20.523A24.937 24.937 0 000 45.066C0 58.816 11.185 70 24.933 70a24.936 24.936 0 0024.543-20.523A24.938 24.938 0 0070 24.934C70 11.184 58.815 0 45.066 0zm2.503 48.434C45.93 59.56 36.197 67.95 24.933 67.95c-12.617 0-22.882-10.265-22.882-22.883 0-11.264 8.39-20.995 19.515-22.635a23.148 23.148 0 013.367-.247c12.618 0 22.883 10.265 22.883 22.883a23.14 23.14 0 01-.247 3.367zm2.195-1.102c.069-.754.103-1.512.103-2.266 0-13.748-11.185-24.933-24.933-24.933-.754 0-1.512.034-2.266.102C24.858 9.78 34.256 2.051 45.066 2.051c12.618 0 22.883 10.265 22.883 22.883 0 10.81-7.727 20.208-18.185 22.398z" fill="#fff"/><path d="M45.751 47.806c-.228.007-.459.01-.684.01-12.618 0-22.883-10.265-22.883-22.882 0-.228.003-.458.01-.687l-2.05-.06c-.007.248-.011.5-.011.747 0 13.748 11.185 24.933 24.933 24.933.246 0 .497-.003.746-.01l-.061-2.05zM32.46 24.91l-.719 1.92c.605.227 1.206.487 1.787.774l.909-1.839a21.475 21.475 0 00-1.977-.856zm3.242 1.534l-1.03 1.774a19.479 19.479 0 019.388 13.224l2.015-.381c-1.16-6.137-4.941-11.464-10.373-14.617zm-6.695-2.506l-.388 2.014a19.54 19.54 0 011.892.463l.588-1.964a21.433 21.433 0 00-2.092-.513z" fill="#fff"/></svg>
